X:1
T:New Lesson,A. HA.072
T:New Lesson,A. HA.072
T:in Hand C
C:in Hand C
L:1/8
Q:3/4=100
M:6/4
K:C
V:1 treble 
V:1
"^As Writ" e2 a2 g2 a2 | g4 g3 (f/g/) a2 d2 | e2 A2 d2 a2 g2 a2 | g4 g3 (f/g/) a2 d2 |"^#" c4 :: %5
 a2 b2 c'2 (ba) | b2 (ag) a2 b2 g3 f | g2 e2 f4 g3 (f/g/) | a2"^#" d2 (ef) e2 d2 | e4 :| x12 | %11
 z2 z2 z2 z2 z2 z2 | z2 z2 z2 z2 z2 z2 | z2 z2 z2 z2 z2 z2 |: %14
[M:3/2]"^Edited by CGP" e2 a2 g2 a2 g4 | g3 (f/g/) a2 d2 e2 A2 | e2 a2 g2 a2 g4 | %17
 g3 (f/g/) a2 d2 c4 :: a2 b2 c'2 (ba) b2 (ag) | a2 b2 g3 f g2 e2 | f4 g3 (f/g/) a2 d2 | %21
 e2 f2 e2 d2 e4 :| %22

